assets/icons/librescoot-bluetooth-connected.svg

<svg xmlns="http://www.w3.org/2000/svg" width="144" height="144" fill="none" viewBox="0 0 144 144"><g clip-path="url(#a)"><path fill="#fff" d="M67.6501 129.901V82.8006l-29.1 29.1004-6.3-6.3 33.6-33.6004-33.6-33.6 6.3-6.3 29.1 29.1v-47.1h4.5l32.0999 32.1-25.7999 25.8 25.7999 25.8-32.0999 32.1004zm9-68.7004 15-15-15-14.7zm0 51.3004 15-14.7004-15-15zm-46.65-33.3004q-3.063 0-5.2065-2.1t-2.1435-5.1 2.1435-5.25 5.2065-2.25 5.2065 2.25 2.1435 5.25-2.1435 5.1-5.2065 2.1m83.9999 0c-2.042 0-3.777-.7-5.206-2.1s-2.144-3.1-2.144-5.1.715-3.75 2.144-5.25 3.164-2.25 5.206-2.25 3.778.75 5.207 2.25 2.143 3.25 2.143 5.25-.714 3.7-2.143 5.1-3.165 2.1-5.207 2.1"/></g><defs><clipPath id="a"><path fill="#fff" d="M0 0h144v144H0z"/></clipPath></defs></svg>

<svg width="144" height="144" viewBox="0 0 144 144" fill="none" xmlns="http://www.w3.org/2000/svg">
    <g clip-path="url(#clip0_400_504)">
        <g>
            <path d="M67.6501 129.901V82.8006L38.5501 111.901L32.2501 105.601L65.8501 72.0006L32.2501 38.4006L38.5501 32.1006L67.6501 61.2006V14.1006H72.1501L104.25 46.2006L78.4501 72.0006L104.25 97.8006L72.1501 129.901H67.6501ZM76.6501 61.2006L91.6501 46.2006L76.6501 31.5006V61.2006ZM76.6501 112.501L91.6501 97.8006L76.6501 82.8006V112.501ZM30.0001 79.2006C27.9581 79.2006 26.2226 78.5006 24.7936 77.1006C23.3646 75.7006 22.6501 74.0006 22.6501 72.0006C22.6501 70.0006 23.3646 68.2506 24.7936 66.7506C26.2226 65.2506 27.9581 64.5006 30.0001 64.5006C32.0421 64.5006 33.7776 65.2506 35.2066 66.7506C36.6356 68.2506 37.3501 70.0006 37.3501 72.0006C37.3501 74.0006 36.6356 75.7006 35.2066 77.1006C33.7776 78.5006 32.0421 79.2006 30.0001 79.2006ZM114 79.2006C111.958 79.2006 110.223 78.5006 108.794 77.1006C107.365 75.7006 106.65 74.0006 106.65 72.0006C106.65 70.0006 107.365 68.2506 108.794 66.7506C110.223 65.2506 111.958 64.5006 114 64.5006C116.042 64.5006 117.778 65.2506 119.207 66.7506C120.636 68.2506 121.35 70.0006 121.35 72.0006C121.35 74.0006 120.636 75.7006 119.207 77.1006C117.778 78.5006 116.042 79.2006 114 79.2006Z" fill="white"/>
        </g>
    </g>
    <defs>
        <clipPath id="clip0_400_504">
            <rect width="144" height="144" fill="white"/>
        </clipPath>
    </defs>
</svg>
